X:225
T:In the Pines
C:Bill Monroe
N:
R:bluegrass
L:1/8
Q:1/4=120
M:3/4
K:E
z6 | z4 (3=G^GB | "E"(3[GE][GE][GE] (3[GE][GE][GE] (3EGA | (3[eB][eB][eB] (3[eB][eB][eB] [eB]E | 
"A"[A3C3]E =G{G}^G | "E"(3[GE][GE][GE] (3[GE][GE][GE] (3EGA | [e3B3][eB] GG | 
"B7"(3[FD][FD][FD] [FD]E (3GEG | "E"(3[GE][GE][GE] (3[GE][GE][GE] (3[GE][GE][GE] | 
[G6E6] | z6 | z6 | z6 | z6 | z6 | z6 | z6 | z6 | z6 | z6 | z6 | z6 | z6 | z6 | 
"."z6 | 


